shader_type canvas_item;

uniform vec2 pixel_count = vec2(64);

void fragment() {
    vec2 uv = UV;
    uv *= pixel_count;
    uv = floor(uv);
    uv /= pixel_count;
    COLOR = texture(TEXTURE, uv);
}